X:1
T:Title
%%score { 1 | ( 2 3 ) }
L:1/8
M:4/4
K:Bb
V:1 treble nm="Grand Piano"
V:2 bass 
V:3 bass 
V:1
 z4 z2[Q:1/4=100] [B,D]>[CE] | [DF]>[DF] [DB]>[Ec] [Fd]>[Fd] [FB]>[FB] | c>c G>G [=Ec]4 | %3
 A>A A>A G2 F2 |[M:9/8] [DB]3 c d2- dD>[CE] |[M:4/4] [DF]>[DF] [DB]>[Ec] [Fd]>[Fd] [FB]>[FB] | %6
 c>c G>G [=Ec]4 | A>A A>A G2 F2 | [DB]6 z2 | [Fd] [Fd]3 [Fd] [Fd]3 | c>c G>G [=Ec]4 | %11
 A>A A>G F2 B2 | d3 _d =d2 z2 | [Fd]>[Fd] [Fd]>[Ec] [DB]2 [DF]2 | [B,D]>[CE] [DF]>[FB] G4 | %15
 AAAG F2 c2 |[M:3/4] [DB]6 |] %17
V:2
 z4 z2 [B,,F,]>[B,,F,] | [B,,B,]>[B,,B,] [B,,B,]>[B,,B,] [B,,B,]>[B,,B,] [D,B,]>[D,B,] | %2
 [E,G,E]>[E,G,E] [E,B,E]>[E,B,E] [C,G,]4 | [F,CE]>[F,CE] [F,CE]>[F,CE] [F,B,E]2 [F,A,E]2 | %4
[M:9/8] z3 E F2- F[B,,F,B,]>[B,,F,] | %5
[M:4/4] [B,,B,]>[B,,B,] [B,,B,]>[B,,B,] [B,,B,]>[B,,B,] [D,B,]>[D,B,] | %6
 [E,G,E]>[E,G,E] [E,B,E]>[E,B,E] [B,,G,]4 | [F,CE]>[F,CE] [F,CE]>[F,CE] [F,B,E]2 [F,A,E]2 | %8
 [B,,B,]6 z2 | [B,,B,] [B,,B,]3 [B,,B,] [B,,B,]3 | [E,G,E]>[E,G,E] [E,B,E]>[E,B,E] [C,G,]4 | %11
 [F,CE]>[F,CE] [F,CE]>[F,CE] [F,B,D]2 [F,B,D]2 | F3 =E F2 z2 | %13
 [B,,B,]>[B,,B,] [B,,B,]>[B,,B,] [B,,B,]2 [B,,B,]2 | [B,,F,]>[B,,F,] [B,,B,]>[D,B,] [E,B,E]4 | %15
 [F,CE][F,CE][F,CE][F,B,E] [F,A,E]2 [F,A,E]2 |[M:3/4] [B,,B,]6 |] %17
V:3
 x8 | x8 | x8 | x8 |[M:9/8] [B,,B,]6- [B,,B,] z z |[M:4/4] x8 | x8 | x8 | x8 | x8 | x8 | x8 | %12
 B,6 z2 | x8 | x8 | x8 |[M:3/4] x6 |] %17

